X:1
T:Title
%%score 1 2
L:1/8
Q:1/4=82
M:4/4
K:G
V:1 treble nm="Grand Piano, Soprano"
V:2 bass nm="Choir Pad, More Faith in Jesus"
V:1
 [DG][GB][GB][DA] [DG][GB][GB][DG] | [CE][B,D][B,D][DG] [GB] [GB]2 [FA] | %2
w: By~Wiliam~James~Kirkpatrick * * * * * * *||
 [DG][GB][GB][DA] [DG][DB][DB][DG] | [CE][B,D][B,D][DG] [DB] [CA]2 [B,G] | %4
w: ||
 [Gd] [Fd]2 [Fd]- [Fd] [Gd]3 | [Gd] [Ge]2 [Ge]- [Ge] [Gd]3 | [Gd][Gd][GB][DA] [DG][Gd][GB][GA] | %7
w: |||
 G [GB]3- [GB] [FA]3 | [DG][GB][GB][DA] [DG][DB][DB][DG] | [CE][B,D][B,D][DG] [DB] [CA]2 [B,G]- | %10
w: |||
 [B,G]6 z2 |] %11
w: |
V:2
 [G,B,][G,D][G,D][G,C] [G,B,][G,D][G,D][G,B,] | G,G,G,[G,B,] [G,D] [D,D]2 [D,D] | %2
 [G,B,][G,D][G,D][G,C] [G,B,][G,,G,][G,,G,][B,,G,] | %3
 [C,G,][D,G,][D,G,][D,B,] [D,G,] [D,F,]2 [G,,G,] | [G,B,] [D,A,]2 [D,C]- [D,C] [G,B,]3 | %5
 [G,B,] [C,C]2 [E,C]- [E,C] [G,B,]3 | [G,B,][G,B,][G,D][G,C] [G,B,][G,B,][G,D][E,^C] | %7
 [E,^C] [D,D]3- [D,D] [D,D]3 | [G,B,][G,D][G,D][G,C] [G,B,][G,,G,][G,,G,][B,,G,] | %9
 [C,G,][D,G,][D,G,][D,B,] [D,G,] [D,F,]2 [G,,G,]- | [G,,G,]6 z2 |] %11

